X:1467
L:1/8
M:4/4
K:C
[M:6/8][K:D] f Pa b uce G a!p! ug ud ud g ave aeded a"^modal" ve b ue ga avaabe uca decded c e uae Tue e"^Mooncoin""^Langstrom's Pony" fa[Q:1/8=160]"^A modal" d |: 
 c2 A AcA | AcA Bcd | c2 A Ace | dBG Bcd :|"^5" cde efg | faf g2 e | c2 e efg | dBG Bcd | 
"^9" cde efg | faf g2 e | a/b/af g2 e | dBG Bcd ||"^13" cBA a3 | ecA Bcd | cBA g2 e | dBG Bcd | 
"^17" cBA a3 | ecA Bcd | cBA g2 e | dBG Bcd ||"^21" ecA AcA | AcA Bcd | ecA Ace | dBG Bcd | 
"^25" ecA AcA | AcA Bcd | ecA Ace | dBG Bcd |"^last time" A6 |]

